tools/download-figma-icons/icons/outlined-medium/apartment-building-alternative.svg

<svg width="25" height="24" viewBox="0 0 25 24" fill="none" xmlns="http://www.w3.org/2000/svg">
<path fill-rule="evenodd" clip-rule="evenodd" d="M12.4159 0.12375L23.6659 7.62375C24.0109 7.85625 24.1084 8.32125 23.8759 8.66625C23.7334 8.88375 23.4934 9.00375 23.2534 9.00375C23.1109 9.00375 22.9684 8.95875 22.8409 8.87625L22.5034 8.65125V23.2463C22.5034 23.6588 22.1659 23.9963 21.7534 23.9963H2.25342C1.84092 23.9963 1.50342 23.6588 1.50342 23.2463V8.65125L1.16592 8.87625C0.820919 9.10125 0.355919 9.01125 0.123419 8.66625C-0.101581 8.32125 -0.0115813 7.85625 0.333419 7.62375L11.5834 0.12375C11.8384 -0.0412498 12.1609 -0.0412498 12.4159 0.12375ZM7.49592 17.9963V22.4963H9.74592V17.9963H7.49592ZM11.2459 22.4963H20.9959V7.64625L11.9959 1.64625L2.99592 7.64625V22.4963H5.99592V17.2463C5.99592 16.8338 6.33342 16.4963 6.74592 16.4963H10.4959C10.9084 16.4963 11.2459 16.8338 11.2459 17.2463V22.4963ZM6.74585 7.49609H10.4958C10.9083 7.49609 11.2458 7.83359 11.2458 8.24609C11.2458 8.65859 10.9083 8.99609 10.4958 8.99609H6.74585C6.33335 8.99609 5.99585 8.65859 5.99585 8.24609C5.99585 7.83359 6.33335 7.49609 6.74585 7.49609ZM10.4958 10.4961H6.74585C6.33335 10.4961 5.99585 10.8336 5.99585 11.2461C5.99585 11.6586 6.33335 11.9961 6.74585 11.9961H10.4958C10.9083 11.9961 11.2458 11.6586 11.2458 11.2461C11.2458 10.8336 10.9083 10.4961 10.4958 10.4961ZM6.74585 13.4961H10.4958C10.9083 13.4961 11.2458 13.8336 11.2458 14.2461C11.2458 14.6586 10.9083 14.9961 10.4958 14.9961H6.74585C6.33335 14.9961 5.99585 14.6586 5.99585 14.2461C5.99585 13.8336 6.33335 13.4961 6.74585 13.4961ZM13.4958 8.99609H17.2458C17.6583 8.99609 17.9958 8.65859 17.9958 8.24609C17.9958 7.83359 17.6583 7.49609 17.2458 7.49609H13.4958C13.0833 7.49609 12.7458 7.83359 12.7458 8.24609C12.7458 8.65859 13.0833 8.99609 13.4958 8.99609ZM17.2458 11.9961H13.4958C13.0833 11.9961 12.7458 11.6586 12.7458 11.2461C12.7458 10.8336 13.0833 10.4961 13.4958 10.4961H17.2458C17.6583 10.4961 17.9958 10.8336 17.9958 11.2461C17.9958 11.6586 17.6583 11.9961 17.2458 11.9961ZM13.4958 14.9961H17.2458C17.6583 14.9961 17.9958 14.6586 17.9958 14.2461C17.9958 13.8336 17.6583 13.4961 17.2458 13.4961H13.4958C13.0833 13.4961 12.7458 13.8336 12.7458 14.2461C12.7458 14.6586 13.0833 14.9961 13.4958 14.9961ZM17.2458 17.9961H13.4958C13.0833 17.9961 12.7458 17.6586 12.7458 17.2461C12.7458 16.8336 13.0833 16.4961 13.4958 16.4961H17.2458C17.6583 16.4961 17.9958 16.8336 17.9958 17.2461C17.9958 17.6586 17.6583 17.9961 17.2458 17.9961Z" fill="black"/>
</svg>

<svg xmlns="http://www.w3.org/2000/svg" width="25" height="24" fill="none" viewBox="0 0 25 24"><path fill="currentColor" fill-rule="evenodd" d="m12.416.124 11.25 7.5a.75.75 0 0 1 .21 1.042.75.75 0 0 1-.623.338.76.76 0 0 1-.412-.128l-.338-.225v14.595c0 .413-.337.75-.75.75h-19.5a.75.75 0 0 1-.75-.75V8.651l-.337.225a.76.76 0 0 1-1.043-.21.76.76 0 0 1 .21-1.042l11.25-7.5a.76.76 0 0 1 .833 0m-4.92 17.872v4.5h2.25v-4.5zm3.75 4.5h9.75V7.646l-9-6-9 6v14.85h3v-5.25c0-.412.337-.75.75-.75h3.75c.412 0 .75.338.75.75zm-4.5-15h3.75c.412 0 .75.338.75.75 0 .413-.338.75-.75.75h-3.75a.75.75 0 0 1-.75-.75c0-.412.337-.75.75-.75m3.75 3h-3.75a.75.75 0 0 0-.75.75c0 .413.337.75.75.75h3.75c.412 0 .75-.337.75-.75a.75.75 0 0 0-.75-.75m-3.75 3h3.75c.412 0 .75.338.75.75 0 .413-.338.75-.75.75h-3.75a.75.75 0 0 1-.75-.75c0-.412.337-.75.75-.75m6.75-4.5h3.75c.412 0 .75-.337.75-.75a.75.75 0 0 0-.75-.75h-3.75a.75.75 0 0 0-.75.75c0 .413.337.75.75.75m3.75 3h-3.75a.75.75 0 0 1-.75-.75c0-.412.337-.75.75-.75h3.75c.412 0 .75.338.75.75 0 .413-.338.75-.75.75m-3.75 3h3.75c.412 0 .75-.337.75-.75a.75.75 0 0 0-.75-.75h-3.75a.75.75 0 0 0-.75.75c0 .413.337.75.75.75m3.75 3h-3.75a.75.75 0 0 1-.75-.75c0-.412.337-.75.75-.75h3.75c.412 0 .75.338.75.75 0 .413-.338.75-.75.75" clip-rule="evenodd"/></svg>
